src/assets/duotone/HomeTrendDown.svg

<svg width="24" height="24" viewBox="0 0 24 24"  xmlns="http://www.w3.org/2000/svg">
<path opacity="0.4" d="M20.0402 6.81969L14.2802 2.78969C12.7102 1.68969 10.3002 1.74969 8.79023 2.91969L3.78023 6.82969C2.78023 7.60969 1.99023 9.20969 1.99023 10.4697V17.3697C1.99023 19.9197 4.06023 21.9997 6.61023 21.9997H17.3902C19.9402 21.9997 22.0102 19.9297 22.0102 17.3797V10.5997C22.0102 9.24969 21.1402 7.58969 20.0402 6.81969Z" />
<path d="M16.8802 14.3294C16.8802 13.9394 16.5702 13.6294 16.1802 13.6294C15.7902 13.6294 15.4802 13.9394 15.4802 14.3294V14.5094L12.7602 11.7894C12.6102 11.6394 12.4102 11.5694 12.2002 11.5894C11.9902 11.6094 11.8002 11.7194 11.6902 11.8994L10.6702 13.4194L8.29016 11.0394C8.02016 10.7694 7.58016 10.7694 7.30016 11.0394C7.03016 11.3094 7.03016 11.7494 7.30016 12.0294L10.2802 15.0094C10.4302 15.1594 10.6302 15.2294 10.8402 15.2094C11.0502 15.1894 11.2402 15.0794 11.3502 14.8994L12.3702 13.3794L14.4802 15.4894H14.3002C13.9102 15.4894 13.6002 15.7994 13.6002 16.1894C13.6002 16.5794 13.9102 16.8894 14.3002 16.8894H16.1602C16.2502 16.8894 16.3402 16.8694 16.4302 16.8394C16.6002 16.7694 16.7402 16.6294 16.8102 16.4594C16.8502 16.3694 16.8602 16.2794 16.8602 16.1894V14.3294H16.8802Z" />
</svg>

<?xml version="1.0" encoding="UTF-8"?>
<svg width="24" height="24" viewBox="0 0 24 24" xmlns="http://www.w3.org/2000/svg">
 <path d="m20.04 6.8197-5.76-4.03c-1.57-1.1-3.98-1.04-5.49 0.13l-5.01 3.91c-1 0.78-1.79 2.38-1.79 3.64v6.9c0 2.55 2.07 4.63 4.62 4.63h10.78c2.55 0 4.62-2.07 4.62-4.62v-6.78c0-1.35-0.87-3.01-1.97-3.78z" opacity=".4"/>
 <path d="m16.88 14.329c0-0.39-0.31-0.7-0.7-0.7s-0.7 0.31-0.7 0.7v0.18l-2.72-2.72c-0.15-0.15-0.35-0.22-0.56-0.2s-0.4 0.13-0.51 0.31l-1.02 1.52-2.38-2.38c-0.27-0.27-0.71-0.27-0.99 0-0.27 0.27-0.27 0.71 0 0.99l2.98 2.98c0.15 0.15 0.35 0.22 0.56 0.2s0.4-0.13 0.51-0.31l1.02-1.52 2.11 2.11h-0.18c-0.39 0-0.7 0.31-0.7 0.7s0.31 0.7 0.7 0.7h1.86c0.09 0 0.18-0.02 0.27-0.05 0.17-0.07 0.31-0.21 0.38-0.38 0.04-0.09 0.05-0.18 0.05-0.27v-1.86h0.02z"/>
</svg>
